icons/ShopPay.svg

<svg width="50" height="34" viewBox="0 0 50 34" fill="none" xmlns="http://www.w3.org/2000/svg">
<rect x="0.5" y="0.5" width="49" height="33" rx="5.5" fill="#5A31F4" stroke="#D9D9D9"/>
<path d="M28.1493 15.67C28.1493 17.8518 26.6068 19.4093 24.4513 19.4093H22.4205C22.3981 19.4093 22.3759 19.4137 22.3552 19.4222C22.3345 19.4308 22.3157 19.4433 22.2999 19.459C22.2841 19.4748 22.2716 19.4935 22.263 19.5141C22.2545 19.5346 22.2502 19.5567 22.2503 19.5789V22.4465C22.2503 22.4913 22.2324 22.5343 22.2005 22.5661C22.1686 22.5979 22.1254 22.6159 22.0801 22.6161H20.6591C20.6253 22.6159 20.5923 22.6059 20.5642 22.5872C20.5362 22.5686 20.5143 22.5421 20.5013 22.5112C20.4927 22.491 20.4882 22.4693 20.4881 22.4473V12.0995C20.488 12.0772 20.4923 12.0552 20.5008 12.0346C20.5093 12.0141 20.5218 11.9954 20.5376 11.9796C20.5534 11.9638 20.5722 11.9513 20.5929 11.9428C20.6136 11.9343 20.6358 11.9299 20.6583 11.9299H24.4604C26.6068 11.9274 28.1493 13.4849 28.1493 15.67ZM26.3771 15.67C26.3771 14.4157 25.5146 13.4989 24.3447 13.4989H22.4205C22.3981 13.4989 22.3759 13.5032 22.3552 13.5118C22.3345 13.5203 22.3157 13.5328 22.2999 13.5486C22.2841 13.5643 22.2716 13.583 22.263 13.6036C22.2545 13.6242 22.2502 13.6462 22.2503 13.6684V17.6617C22.2503 17.7065 22.2683 17.7494 22.3002 17.7811C22.3321 17.8127 22.3754 17.8305 22.4205 17.8305H24.3447C25.5146 17.8387 26.3771 16.9211 26.3771 15.67ZM28.5707 20.6309C28.5559 20.2963 28.6258 19.9633 28.7738 19.6623C28.9218 19.3612 29.1434 19.1016 29.4184 18.9071C29.9727 18.4933 30.8394 18.2795 32.1117 18.2353L33.4667 18.1877V17.7912C33.4667 16.9965 32.9297 16.6605 32.0671 16.6605C31.2046 16.6605 30.6576 16.9637 30.5321 17.4594C30.5218 17.4942 30.5002 17.5247 30.4706 17.5461C30.441 17.5674 30.4051 17.5784 30.3685 17.5774H29.03C29.0054 17.578 28.9809 17.5733 28.9583 17.5635C28.9357 17.5537 28.9156 17.5391 28.8993 17.5207C28.8831 17.5023 28.8711 17.4806 28.8643 17.4571C28.8575 17.4336 28.856 17.409 28.8598 17.3848C29.0581 16.2099 30.0438 15.3169 32.1283 15.3169C34.3457 15.3169 35.1463 16.341 35.1463 18.2959V22.4465C35.1459 22.4917 35.1274 22.535 35.0949 22.5668C35.0624 22.5986 35.0185 22.6163 34.9728 22.6161H33.6237C33.5785 22.616 33.5352 22.5983 33.503 22.5669C33.4872 22.5512 33.4747 22.5325 33.4662 22.512C33.4577 22.4915 33.4534 22.4695 33.4535 22.4473V22.1368C33.454 22.1111 33.4466 22.0859 33.4323 22.0645C33.4181 22.0431 33.3976 22.0264 33.3737 22.0167C33.3497 22.0071 33.3233 22.0048 33.2981 22.0103C33.2728 22.0158 33.2498 22.0288 33.232 22.0475C32.8272 22.4842 32.1737 22.7996 31.1269 22.7996C29.5869 22.7996 28.5707 22.0049 28.5707 20.6309ZM33.4667 19.7313V19.4093L31.7119 19.5011C30.7874 19.5478 30.2495 19.9288 30.2495 20.5703C30.2495 21.1503 30.7427 21.4715 31.6045 21.4715C32.7752 21.4715 33.4667 20.8447 33.4667 19.7313ZM36.5013 25.7524V24.5496C36.5015 24.5244 36.5074 24.4996 36.5184 24.4768C36.5294 24.4541 36.5454 24.434 36.5651 24.4181C36.5848 24.4021 36.6078 24.3907 36.6325 24.3845C36.6571 24.3784 36.6829 24.3777 36.7078 24.3825C36.9144 24.421 37.1251 24.4407 37.3357 24.4415C37.6979 24.459 38.0555 24.3554 38.3514 24.1475C38.6472 23.9395 38.8641 23.6392 38.9675 23.2945L39.055 23.0175C39.0677 22.9803 39.0677 22.94 39.055 22.9028L36.2435 15.7421C36.2333 15.7161 36.2297 15.6881 36.2328 15.6605C36.236 15.6328 36.2459 15.6063 36.2617 15.5832C36.2774 15.5602 36.2986 15.5413 36.3233 15.5282C36.3481 15.515 36.3757 15.508 36.4038 15.5078H37.767C37.8018 15.5081 37.8357 15.5189 37.8643 15.5386C37.8929 15.5583 37.9148 15.5861 37.9273 15.6184L39.8366 20.6686C39.8486 20.7021 39.8707 20.7312 39.9 20.7517C39.9293 20.7723 39.9643 20.7833 40.0002 20.7833C40.0361 20.7833 40.0711 20.7723 40.1004 20.7517C40.1297 20.7312 40.1518 20.7021 40.1638 20.6686L41.8219 15.6323C41.8334 15.5979 41.8556 15.568 41.8853 15.5468C41.9149 15.5256 41.9506 15.5142 41.9872 15.5143H43.3975C43.4257 15.5145 43.4535 15.5215 43.4785 15.5346C43.5034 15.5477 43.5248 15.5666 43.5408 15.5897C43.5568 15.6128 43.5669 15.6394 43.5703 15.6672C43.5737 15.6951 43.5702 15.7233 43.5602 15.7495L40.5529 23.7017C39.8606 25.55 38.6733 26.0227 37.3663 26.0227C37.1184 26.0293 36.8706 25.9998 36.631 25.9351C36.5911 25.9246 36.5563 25.9006 36.5326 25.8672C36.5089 25.8337 36.4978 25.7931 36.5013 25.7524ZM11.3562 11.3334C9.56508 11.3208 7.83718 11.9893 6.52794 13.2014C6.47195 13.2523 6.43705 13.322 6.43002 13.3969C6.423 13.4719 6.44436 13.5468 6.48994 13.607L7.30043 14.7049C7.3267 14.7414 7.36074 14.7718 7.40013 14.7939C7.43953 14.816 7.48333 14.8293 7.52846 14.8328C7.57359 14.8363 7.61894 14.83 7.66133 14.8143C7.70373 14.7985 7.74213 14.7738 7.77384 14.7417C8.2446 14.275 8.80446 13.906 9.42069 13.6563C10.0369 13.4066 10.6971 13.2812 11.3628 13.2875C14.1421 13.2875 15.5937 15.3619 15.5937 17.4102C15.5937 19.6371 14.0686 21.2036 11.8767 21.2347C10.183 21.2347 8.90654 20.1213 8.90654 18.6506C8.90831 18.2791 8.99318 17.9126 9.15506 17.5775C9.31693 17.2425 9.55176 16.9472 9.84261 16.713C9.9041 16.662 9.94297 16.5892 9.95085 16.5101C9.95873 16.4311 9.93499 16.3521 9.88475 16.2902L9.03295 15.2235C9.00719 15.1912 8.97517 15.1644 8.93879 15.1446C8.90241 15.1248 8.8624 15.1125 8.82112 15.1083C8.77984 15.1041 8.73813 15.1081 8.69846 15.1202C8.65878 15.1322 8.62194 15.152 8.59011 15.1784C8.06698 15.5964 7.64483 16.1252 7.35461 16.726C7.0644 17.3268 6.91349 17.9844 6.91295 18.6506C6.91295 21.1823 9.08252 23.1683 11.8618 23.1847H11.899C15.1988 23.1421 17.5848 20.7186 17.5848 17.4061C17.5848 14.4648 15.4004 11.3334 11.357 11.3334H11.3562Z" fill="white"/>
</svg>

<svg width="50" height="34" fill="none" xmlns="http://www.w3.org/2000/svg"><rect x=".5" y=".5" width="49" height="33" rx="5.5" fill="#5A31F4" stroke="#D9D9D9"/><path d="M28.15 15.67c0 2.182-1.543 3.74-3.699 3.74h-2.03a.172.172 0 0 0-.158.104.167.167 0 0 0-.013.065v2.867a.171.171 0 0 1-.17.17h-1.42a.173.173 0 0 1-.159-.105.165.165 0 0 1-.013-.064V12.1a.168.168 0 0 1 .105-.157.172.172 0 0 1 .065-.013h3.802c2.147-.003 3.69 1.555 3.69 3.74Zm-1.773 0c0-1.254-.862-2.171-2.032-2.171H22.42a.17.17 0 0 0-.17.17v3.993a.168.168 0 0 0 .17.169h1.924c1.17.008 2.032-.91 2.032-2.161Zm2.194 4.96a1.995 1.995 0 0 1 .847-1.723c.555-.414 1.421-.628 2.694-.672l1.355-.047v-.397c0-.794-.537-1.13-1.4-1.13-.862 0-1.41.303-1.535.798a.165.165 0 0 1-.163.118H29.03a.17.17 0 0 1-.13-.056.166.166 0 0 1-.04-.136c.198-1.175 1.184-2.068 3.268-2.068 2.218 0 3.018 1.024 3.018 2.979v4.15a.17.17 0 0 1-.173.17h-1.35a.168.168 0 0 1-.17-.169v-.31a.128.128 0 0 0-.221-.09c-.405.437-1.058.753-2.105.753-1.54 0-2.556-.795-2.556-2.17Zm4.896-.899v-.322l-1.755.092c-.925.047-1.462.428-1.462 1.07 0 .58.493.9 1.355.9 1.17 0 1.862-.626 1.862-1.74Zm3.034 6.021V24.55a.17.17 0 0 1 .132-.166.175.175 0 0 1 .075-.002c.206.039.417.059.628.06a1.63 1.63 0 0 0 1.015-.294c.296-.209.513-.509.617-.854l.087-.277a.177.177 0 0 0 0-.114l-2.812-7.16a.171.171 0 0 1 .08-.215.174.174 0 0 1 .08-.02h1.364a.174.174 0 0 1 .16.11l1.91 5.05a.172.172 0 0 0 .163.115.174.174 0 0 0 .164-.114l1.658-5.037a.172.172 0 0 1 .165-.118h1.41a.177.177 0 0 1 .144.076.173.173 0 0 1 .02.16l-3.008 7.952c-.692 1.848-1.88 2.32-3.187 2.32a2.56 2.56 0 0 1-.735-.087.175.175 0 0 1-.13-.183ZM11.356 11.333a7.035 7.035 0 0 0-4.828 1.868.303.303 0 0 0-.038.406l.81 1.098a.31.31 0 0 0 .361.11.31.31 0 0 0 .113-.073 5.045 5.045 0 0 1 3.589-1.454c2.78 0 4.23 2.074 4.23 4.122 0 2.227-1.524 3.794-3.716 3.825-1.694 0-2.97-1.114-2.97-2.584a2.494 2.494 0 0 1 .936-1.938.303.303 0 0 0 .042-.423l-.852-1.066a.31.31 0 0 0-.335-.104.31.31 0 0 0-.108.058 4.47 4.47 0 0 0-1.235 1.548c-.29.6-.442 1.258-.442 1.925 0 2.531 2.17 4.517 4.949 4.534h.037c3.3-.043 5.686-2.466 5.686-5.779 0-2.941-2.185-6.073-6.228-6.073Z" fill="#fff"/></svg>
